X: 501
T: Penny Farthing
C: Bert Murray
R: jig
Z: 2006 John Chambers <jc:trillian.mit.edu>
S: printed MS of unknown origin
M: 6/8
L: 1/8
K: Edor
B \
| "Em"EFE BAB | EFE BAB | "D"AdA FAF | DDE FED \
| "Em"EFE BAB | EFE BAB | "D"dcB ABd | BAF "Em"E2 :|
B \
| "Em"efg gfe | Bef gfe | "D"dfd AdA | FAF DFA \
| "Em"efg gfe | Bef gfe | "D"dcB ABd | BAF "Em"E2 |]
B \
| "Em"efg gfe | Bef gfe | "D"dcd A^GA | FEF DEF \
| "Em"EFE BAB | EFE BAB | "D"dcB ABd | BAF "Em"E2 |]

%%sep 2 1 500

